web/assets/system/leftcornerover.svg

<?xml version="1.0" encoding="UTF-8" standalone="no"?>
<!-- Created with Inkscape (http://www.inkscape.org/) -->

<svg
   xmlns:dc="http://purl.org/dc/elements/1.1/"
   xmlns:cc="http://creativecommons.org/ns#"
   xmlns:rdf="http://www.w3.org/1999/02/22-rdf-syntax-ns#"
   xmlns:svg="http://www.w3.org/2000/svg"
   xmlns="http://www.w3.org/2000/svg"
   xmlns:xlink="http://www.w3.org/1999/xlink"
   version="1.1"
   width="130.82381"
   height="108.81229"
   id="svg2">
  <defs
     id="defs4">
    <linearGradient
       x1="4.4336157"
       y1="38.773102"
       x2="4.4140086"
       y2="-47.877953"
       id="linearGradient3801"
       xlink:href="#linearGradient3773"
       gradientUnits="userSpaceOnUse"
       spreadMethod="pad" />
    <linearGradient
       id="linearGradient3773">
      <stop
         id="stop3781"
         style="stop-color:#b3dcb6;stop-opacity:1"
         offset="0" />
      <stop
         id="stop3777"
         style="stop-color:#72dddf;stop-opacity:1"
         offset="1" />
    </linearGradient>
    <linearGradient
       x1="4.4336157"
       y1="38.773102"
       x2="4.4140086"
       y2="-47.877953"
       id="linearGradient3549"
       xlink:href="#linearGradient3773"
       gradientUnits="userSpaceOnUse"
       spreadMethod="pad" />
    <linearGradient
       x1="4.4336157"
       y1="38.773102"
       x2="4.4140086"
       y2="-47.877953"
       id="linearGradient3801-1"
       xlink:href="#linearGradient3773-1"
       gradientUnits="userSpaceOnUse"
       spreadMethod="pad" />
    <linearGradient
       id="linearGradient3773-1">
      <stop
         id="stop3781-9"
         style="stop-color:#e16732;stop-opacity:1"
         offset="0" />
      <stop
         id="stop3777-2"
         style="stop-color:#f80000;stop-opacity:1"
         offset="1" />
    </linearGradient>
    <linearGradient
       x1="4.4336157"
       y1="38.773102"
       x2="4.4140086"
       y2="-47.877953"
       id="linearGradient3605"
       xlink:href="#linearGradient3773-1"
       gradientUnits="userSpaceOnUse"
       spreadMethod="pad" />
    <linearGradient
       x1="1.734691"
       y1="-43.062199"
       x2="7.9053297"
       y2="58.692627"
       id="linearGradient3821"
       xlink:href="#linearGradient3773-3"
       gradientUnits="userSpaceOnUse" />
    <linearGradient
       id="linearGradient3773-3">
      <stop
         id="stop3781-1"
         style="stop-color:#3c3c3c;stop-opacity:1"
         offset="0" />
      <stop
         id="stop3777-8"
         style="stop-color:#838383;stop-opacity:1"
         offset="1" />
    </linearGradient>
    <linearGradient
       x1="1.734691"
       y1="-43.062199"
       x2="7.9053297"
       y2="58.692627"
       id="linearGradient3639"
       xlink:href="#linearGradient3773-3"
       gradientUnits="userSpaceOnUse" />
  </defs>
  <metadata
     id="metadata7">
    <rdf:RDF>
      <cc:Work
         rdf:about="">
        <dc:format>image/svg+xml</dc:format>
        <dc:type
           rdf:resource="http://purl.org/dc/dcmitype/StillImage" />
        <dc:title></dc:title>
      </cc:Work>
    </rdf:RDF>
  </metadata>
  <path
     d="M -0.03125,110.9375 1.03125,84.21875 C 1.17755,77.6651 6.52289,73.27605 11.5625,72.78125 L 24.21875,72.1875 C 36.15475,72.1912 48.080275,69.398416 58.625,63.59375 78.137163,53.342357 92.310764,33.036342 94.46875,11.15625 95.514672,6.161668 98.84676,2.2645688 103.875,1.375 l 29.0625,-1.5 C 101.82303,-3.8092376 3.6748596,-3.523522 -1.4936223,-0.39496525 -9.1204251,42.375765 -3.4784802,79.099914 -0.03125,110.9375 z m 80.75,-107.875 c 0.529503,-0.01391 1.101015,0.00812 1.71875,0.0625 8.85253,-0.62258 6.99872,3.79419 6.625,10 C 86.91798,32.5843 72.99248,51.10613 59.5,57.78125 c -4.52586,2.11549 -18.97792,9.46802 -41.75,9.8125 -9.10279,-0.57079 -11.96204,-0.20999 -12,-1.5 -0.1292,-4.39042 13.57288,-13.39145 14.875,-12.4375 10.30016,-0.96051 10.28251,0.0991 25.78125,-3.71875 15.2166,-7.12934 24.12026,-16.69868 28.75,-37.5625 0.2702,-7.21819 1.855982,-9.2151307 5.5625,-9.3125 z"
     id="path5275-1"
     style="fill:#eeeeee;fill-opacity:1;stroke:none" />
  <path
     d="M 81.919437,6.2297326 C 78.613439,5.9534791 79.503969,6.8282056 78.663249,11.360709 72.628081,43.754623 52.658622,56.081834 21.009169,56.987189"
     id="path3003"
     style="fill:none;stroke:#eeeeee;stroke-width:1.89999998;stroke-linecap:round;stroke-linejoin:miter;stroke-miterlimit:4;stroke-opacity:1;stroke-dasharray:none" />
  <g
     transform="translate(-215.40173,-532.16943)"
     id="layer1" />
</svg>

<svg xmlns="http://www.w3.org/2000/svg" xmlns:xlink="http://www.w3.org/1999/xlink" width="130.824" height="108.812"><defs><linearGradient x1="4.434" y1="38.773" x2="4.414" y2="-47.878" xlink:href="#a" gradientUnits="userSpaceOnUse"/><linearGradient id="a"><stop offset="0" stop-color="#b3dcb6"/><stop offset="1" stop-color="#72dddf"/></linearGradient><linearGradient x1="4.434" y1="38.773" x2="4.414" y2="-47.878" xlink:href="#a" gradientUnits="userSpaceOnUse"/><linearGradient x1="4.434" y1="38.773" x2="4.414" y2="-47.878" xlink:href="#b" gradientUnits="userSpaceOnUse"/><linearGradient id="b"><stop offset="0" stop-color="#e16732"/><stop offset="1" stop-color="#f80000"/></linearGradient><linearGradient x1="4.434" y1="38.773" x2="4.414" y2="-47.878" xlink:href="#b" gradientUnits="userSpaceOnUse"/><linearGradient x1="1.735" y1="-43.062" x2="7.905" y2="58.693" xlink:href="#c" gradientUnits="userSpaceOnUse"/><linearGradient id="c"><stop offset="0" stop-color="#3c3c3c"/><stop offset="1" stop-color="#838383"/></linearGradient><linearGradient x1="1.735" y1="-43.062" x2="7.905" y2="58.693" xlink:href="#c" gradientUnits="userSpaceOnUse"/></defs><path d="M-.03 110.938l1.06-26.72c.148-6.553 5.493-10.942 10.533-11.437l12.656-.593c11.935.004 23.86-2.79 34.405-8.593C78.137 53.342 92.31 33.036 94.47 11.156c1.045-4.994 4.377-8.89 9.405-9.78l29.063-1.5C101.823-3.81 3.674-3.525-1.494-.395-9.12 42.375-3.478 79.1-.03 110.937zM80.72 3.06c.528-.013 1.1.01 1.718.063 8.852-.623 6.998 3.794 6.624 10-2.144 19.46-16.07 37.98-29.562 44.656-4.526 2.117-18.978 9.47-41.75 9.814-9.103-.57-11.962-.21-12-1.5-.13-4.39 13.573-13.392 14.875-12.438 10.3-.96 10.283.1 25.78-3.718 15.218-7.13 24.122-16.7 28.75-37.563.27-7.218 1.857-9.215 5.564-9.313z" fill="#eee"/><path d="M81.92 6.23c-3.307-.277-2.416.598-3.257 5.13C72.628 43.756 52.66 56.083 21.01 56.988" fill="none" stroke="#eee" stroke-width="1.9" stroke-linecap="round"/></svg>
